X:0476
T:Will ye go to the Ew-Bughts Marrion.
M:2/4
L:1/8
Q:1/4=56 "Very Slow"
I: ||
Z:Jack Campin * www.campin.me.uk * 2009
K:G
  E>F    |G2  AB       |    g2  f>g|     e2 E>F|{F}G2 AB|({B}g2) {g}f>g |   e3
{ef}g    |d<B Bc       |    c2  B>c| {B} A2 B^d|   e2 Ec|   (BA)   (G>F)|{F}G2
  zHg{ab}|d<B B3/A//B//|({d}c2) B>c|({B}A2) B^d|   e2 Ec|   (BA)   (G>F)|   E2|]
<end>
<start>
